X:37
T:Baskerville Dog
M:4/4
L:1/8
Q:1/4=90
K:G
E | B2 GE B2 G2 | A6 GA | B2 GE dBGA-|A6 z G |
F3 G/2A/2 B3 G/2F/2 | E6 GA | B2 GE AFDE-|E8 |

